X:56
T:Sister Sarah. VWMLa.056
%%VWML:Anon2-3049-p34-0
F:http://www.vwml.org/record/Anon2/3049/p34
S:Anon. MS, late 18thC, Vaughan Williams Mem. Library
N:MS has key signature D (2 #). PJH.
O:England;Yorkshire
Z:vmp/efdss.Simon Wilson. Reviewed PJH 2008.
M:6/8
L:1/8
Q:3/8=120
K:G
D|G2d d>cB|(Ac).e e>fg|G2d d>Bd|G2d d>cB|
cec BdB|ABA f3|gfe dgG|G2d d2:|
M:9/8
|:G2G BAB c2A|G2G BAB c2A|\
G2G BAB c2d|efe A2B c2A:|
|:G2g d2B d2B|G2g d2B cBA|\
G2g d2B c2d|efe A2B c2A:|
T:Hunting Squeril (sic). VWMLa.057
T:Hunt The Squirl,aka. VWMLa.057
R:Jig
S:Anon. MS, late 18thC, Vaughan Williams Mem. Library
N:Spelling again ..
O:England;Yorkshire
Z:vmp/efdss.Simon Wilson. Reviewed PJH 2008.
M:6/8
L:1/8
Q:3/8=120
K:A
A2e e2f|e3 c3|ABc c2B|ABc c2B|\
A2e e2f|e3 c3|ABc c2B|A3 A3:|
|:d2e fef|d2e fef|d2e f2g|a3 agf|\
e2c e2c|e2c e2f|edc B2c|A3 A3:|
